resources/icons/20px/data-sync.svg

<svg width="20" height="20" viewBox="0 0 20 20" fill="none" xmlns="http://www.w3.org/2000/svg">
    <path
        d="M1 4.1V9.5C1 10.7934 4.14494 11.8585 8.1788 11.987L8.58289 11.5829C8.94829 11.2175 9.45177 11 10 11C10.5482 11 11.0517 11.2175 11.4171 11.5829L11.6894 11.8552C11.7965 11.8433 11.9024 11.8307 12.0073 11.8173C12.0445 11.3547 12.225 10.9107 12.5679 10.5679C12.9557 10.1801 13.4728 10 14 10C14.8152 10 15.5862 10.1972 16.2676 10.5463C16.7378 10.228 17 9.8735 17 9.5V4.1C15.51 5.23 12.49 6 9 6C5.52 6 2.5 5.23 1 4.1Z"
        fill="#5F6B7C" />
    <path
        d="M1 11.1C2.23939 12.0337 4.51649 12.7216 7.23337 12.9324L6.58289 13.5829C6.2175 13.9483 6 14.4518 6 15C6 16.1023 6.89772 17 8 17C8.03365 17 8.06713 16.9992 8.10042 16.9976C8.25128 17.7366 8.56624 18.4174 9.00529 19H9C4.58 19 1 17.88 1 16.5V11.1Z"
        fill="#5F6B7C" />
    <path d="M9 5C13.42 5 17 3.88 17 2.5C17 1.12 13.42 0 9 0C4.58 0 1 1.12 1 2.5C1 3.88 4.59 5 9 5Z"
        fill="#5F6B7C" />
    <path
        d="M14 11C16.2 11 18 12.8 18 15V15.59L18.29 15.3C18.47 15.11 18.72 15 19 15C19.55 15 20 15.45 20 16C20 16.28 19.89 16.53 19.71 16.71L17.71 18.71C17.53 18.89 17.28 19 17 19C16.72 19 16.47 18.89 16.29 18.71L14.29 16.71C14.11 16.53 14 16.28 14 16C14 15.45 14.45 15 15 15C15.28 15 15.53 15.11 15.71 15.29L16 15.59V15C16 13.9 15.1 13 14 13C13.4 13 13 12.6 13 12C13 11.4 13.4 11 14 11Z"
        fill="#5F6B7C" />
    <path
        d="M8 16C8.28 16 8.53 15.89 8.71 15.71L9 15.41V16C9 18.2 10.8 20 13 20C13.6 20 14 19.6 14 19C14 18.4 13.6 18 13 18C11.9 18 11 17.1 11 16V15.41L11.29 15.7C11.47 15.89 11.72 16 12 16C12.55 16 13 15.55 13 15C13 14.72 12.89 14.47 12.71 14.29L10.71 12.29C10.53 12.11 10.28 12 10 12C9.72 12 9.47 12.11 9.29 12.29L7.29 14.29C7.11 14.47 7 14.72 7 15C7 15.55 7.45 16 8 16Z"
        fill="#5F6B7C" />
</svg>

<svg xmlns="http://www.w3.org/2000/svg" viewBox="0 0 20 20">
  <path d="M1 4.1v5.4c0 1.293 3.145 2.358 7.179 2.487l.404-.404A2 2 0 0 1 10 11c.548 0 1.052.217 1.417.583l.272.272q.16-.017.318-.038c.037-.462.218-.906.56-1.25.389-.387.906-.567 1.433-.567a4.96 4.96 0 0 1 2.268.546c.47-.318.732-.672.732-1.046V4.1C15.51 5.23 12.49 6 9 6c-3.48 0-6.5-.77-8-1.9M1 11.1c1.24.934 3.516 1.622 6.233 1.832l-.65.65A2.003 2.003 0 0 0 8.1 16.998c.15.74.465 1.42.904 2.003H9c-4.42 0-8-1.12-8-2.5z"/>
  <path d="M9 5c4.42 0 8-1.12 8-2.5S13.42 0 9 0 1 1.12 1 2.5 4.59 5 9 5M14 11c2.2 0 4 1.8 4 4v.59l.29-.29c.18-.19.43-.3.71-.3a1.003 1.003 0 0 1 .71 1.71l-2 2c-.18.18-.43.29-.71.29s-.53-.11-.71-.29l-2-2a1.003 1.003 0 0 1 1.42-1.42l.29.3V15c0-1.1-.9-2-2-2-.6 0-1-.4-1-1s.4-1 1-1M8 16c.28 0 .53-.11.71-.29l.29-.3V16c0 2.2 1.8 4 4 4 .6 0 1-.4 1-1s-.4-1-1-1c-1.1 0-2-.9-2-2v-.59l.29.29c.18.19.43.3.71.3a1.003 1.003 0 0 0 .71-1.71l-2-2A1 1 0 0 0 10 12c-.28 0-.53.11-.71.29l-2 2A1.003 1.003 0 0 0 8 16"/>
</svg>
